X:1
T:The Well-Tempered Clavier Part I Fuga IV 
T:BWV 849
T:Johann Sebastian Bach
%%score { ( 1 4 5 ) | ( 2 3 6 ) }
L:1/8
Q:1/4=144
M:4/4
K:E
V:1 treble nm="Harp"
V:4 treble 
V:5 treble 
V:2 bass 
V:3 bass 
V:6 bass 
V:1
 z8 | z8 | z8 | z8 | z8 | z8 | x8 | z8 | z8 | x8 | x8 | x8 | x8 | z4 c4 | ^B4 e4 | d8 | c6 d2 | %17
 e2 d2 c4 | B4 c4 | d4 z4 | z2 e2 d2 c2 | B2 d2 g4- | g2 f2 g2 a2 | b8- | b2 a2 g2 f2 | gfed c4- | %26
 c4 B4- | B2 c2 B2 A2 | G4 ^A2 B2 | c4 B4- | B4 ^A4 | B8- | B2 c2 d2 e2- | e4 d4 | e2 d2 e2 f2 | %35
 gfga gfeg | fefg fedf | edef edce | dcde dcBd | cBcd cB^Ac | B4- BcdB | c4- c2 e2 | d4- d2 f2 | %43
 e8- | e2 d4 c2- | c2 ^B^A B2 d2 | gfga gfeg | fefg fedf | ^e4 a4 | g8- | g2 fe =d4 | z2 c2 f2 f2 | %52
 f2 e=d e4- | e2 =dc d4- | d4 c4 | f4 e4- | e3 f e=dce | =dcde dcBd | c8 | ^B4 e4 | d8- | %61
 d2 G2 c2 c2 | c2 BA B4- | B4 A4 | G4 z4 | d8 | ^^c4 f4 | ^e4 =e4 | dcde dcBd | cBcd cedc | %70
 =c4 B4 | ^A4 =A4 | G4 z4 | z8 | z8 | c8 | ^B4 e4 | d8- | d4 c4- | c4 ^B4 | z2 cd e2 f2 | %81
 gfga gfeg | fefg fedf | edef e=dce | =dcde dcBd | cBc=d cBAc | BABc BAGB | A4 z4 | c8 | ^B4 e4 | %90
 d8- | d2 c2 g2 g2 | g2 fe f4 | e8 | d4 =g4 | f4 F4 | ^E4 z4 | z8 | z2 ^B2 f2 f2 | f2 ed e2 dc | %100
 d2 ^B2 c4- | c8 | ^B4 =B4 | ^A4 =A4 | G8 | ^A4 ^B4 | c8 | ^B4 e4- | e4 d2 c2 | ^B4 c4- | c4 ^B4 | %111
 c8- | c8-[Q:1/4=140][Q:1/4=137][Q:1/4=132] |[Q:1/4=128] c8-[Q:1/4=116][Q:1/4=104][Q:1/4=123] | %114
[Q:1/4=94] !fermata!c8 |] %115
V:2
 z8 | z8 | z8 | G,8 | ^^F,4 B,4 | ^A,8 | G,4 =A,4- | A,2 G,F, G,2 C2 | F,2 G,A, B,4- | %9
 B,2 A,2 G,2 F,2 | G,4 F,2 E,2 | D,6 =D,2 | C,8- | C,8 | z8 | z8 | z8 | z8 | z4 G,4 | ^^F,4 B,4 | %20
 ^A,8 | G,2 A,2 G,2 F,2 | ^E,4 A,4 | G,8 | F,8- | F,2 G,F, E,2 F,G, | A,2 F,2 G,4 | C,8- | C,8- | %29
 C,4 F,4 | E,2 D,2 E,2 F,2 | G,2 F,2 G,2 A,2 | B,8- | B,8- | B,4 C4 | =C4 E4 | D8 | C8- | %38
 C2 B,2 ^A,2 G,2- | G,2 ^^F,^E, F,4 | G,^A,G,^^F, G,A,B,G, | A,B,A,G, ^A,B,CA, | B,CB,^A, ^B,CDB, | %43
 C8 | z8 | z8 | z8 | z8 | z8 | z8 | z4 F,4 | ^E,4 A,4 | G,8 | F,8 | z8 | x8 | x8 | x8 | x8 | %59
 z2 G,2 C2 C2 | C2 ^B,^A, B,4 | C4 A,4 | F,4 G,4 | ^E,4 F,4 | F,2 E,D, E,4 | D,8 | z8 | z8 | %68
 z2 D,2 G,2 G,2 | G,2 F,E, F,4- | F,A,G,F, ^E,D,E,C, | F,^E,F,G, A,G,A,B, | C^B,CD z4 | %73
 z2 G,,2 C,2 C,2 | C,2 =C,^A,, ^B,,4 | C,4 z4 | z8 | z8 | z8 | z8 | C,8 | =C,4 E,4 | D,8 | %83
 C,2 E,2 A,2 A,2 | A,2 G,F, G,4- | G,4 F,4 | G,8 | A,4 F,4- | F,F,E,D, E,2 C,2 | G,8 | F,4 D,4 | %91
 E,D,E,F, E,D,C,E, | D,C,D,E, D,C,^B,,D, | C,2 z2 z4 | x8 | z2 F,2 B,2 B,2 | B,2 A,G, A,G,F,E, | %97
 D,4 z2 G,2 | D2 D2 D2 C^B, | C8 | ^B,4 E4- | E2 C,2 F,2 F,2 | F,2 ^E,D, C,4- | C,4 D,4- | %104
 D,2 D,2 G,2 G,2 | G,2 F,E, F,2 F,2 | F,2 E,D, E,2 D,C, | D,2 G,,2 C,2 C,2 | C,2 B,,^A,, C,4- | %109
 C,E, F,2- F,E,D,C, | G,8 | A,6 G,A, | B,2 A,2 G,2 F,2 | C2 B,A, G,2 F,2 | G,8 |] %115
V:3
 C,8 | ^B,,4 E,4 | D,8 | C,2 D,2 E,4- | E,2 D,C, D,2 G,2 | C,2 D,E, F,4- | F,2 E,2 D,2 C,2 | %7
 D,4 C,4- | C,2 B,,2 A,,2 G,,2 | A,,4 _B,,4 | =C,4 ^C,4 | G,,2 A,,2 B,,4- | B,,2 A,,2 G,,2 F,,2 | %13
 C,4 A,,4- | A,,2 G,,2 F,,2 E,,2 | F,,4 G,,4 | A,,2 G,,2 A,,2 B,,2 | C,2 B,,2 C,2 D,2 | E,4 C,4- | %19
 C,2 B,,2 ^A,,2 G,,2 | C,4 D,4 | G,,4 z4 | x8 | x8 | x8 | x8 | x8 | x8 | z4 B,,4 | ^A,,4 D,4 | %30
 C,8 | B,,8- | B,,2 G,2 F,2 E,2 | B,4 B,,4 | E,4 A,4 | G,4 ^C4- | C4 ^B,4 | x8 | x8 | x8 | x8 | %41
 x8 | x8 | z2 C,D, E,2 F,2 | G,F,G,A, G,F,E,G, | F,E,F,G, F,E,D,F, | E,D,E,F, E,A,G,A, | %47
 D,C,D,E, D,G,F,G, | C,4 z4 | x8 | x8 | x8 | x8 | x8 | z2 E,2 A,2 A,2 | A,2 G,F, G,4 | A,4 F,4 | %57
 B,,4 E,4 | A,,8 | G,,4 z4 | x8 | x8 | x8 | x8 | z2 G,,2 C,2 C,2 | C,2 B,,^A,, B,,A,,G,,B,, | %66
 ^A,,G,,=A,,B,, A,,G,,F,,A,, | G,,F,,G,,^A,, G,,B,,A,,G,, | ^^F,,4 G,,4 | ^A,,4 D,4 | G,,4 z4 | %71
 x8 | C,,8 | B,,,4 E,,4 | D,,8 | C,,2 C,,D,, E,,2 F,,2 | G,,F,,G,,A,, G,,F,,E,,G,, | %77
 F,,E,,F,,G,, F,,E,,D,,F,, | E,,2 E,2 A,2 A,2 | A,2 G,2 G,2 G,,2 | C,2 B,,2 A,,4 | G,,2 z2 z4 | %82
 x8 | x8 | x8 | C,,2 C,2 F,2 F,2 | F,2 ^E,D, F,4 | F,4 z4 | x8 | z2 G,,2 C,2 C,2 | %90
 C,2 B,,^A,, B,,C,D,B,, | E,,4 z2 A,,2 | C,,4 z2 G,,2 | C,,2 E,2 A,2 A,2 | A,2 =G,F, E,4 | x8 | %96
 z4 C,4 | ^B,,4 E,4 | D,8 | C,2 E,2 A,2 A,2 | A,2 G,F, E,D,C,=B,, | ^A,,4 =A,,4- | %102
 A,,2 G,,F,, ^E,,4 | F,,8 | G,,8- | G,,8- | G,,8- | G,,8 | ^^F,,8 | G,,8- | G,,8 | C,8- | C,8- | %113
 C,8- | !fermata!C,8 |] %115
V:4
 x8 | x8 | x8 | x8 | x8 | x8 | z4 C4 | ^B,4 E4 | D8 | C4 F4- | F2 E2 D2 C2 | C4 B,4 | C4 F4- | %13
 F2 E2 D2 C2 | D4 G4 | z2 A2 G2 F2 | ^E2 C2 F4 | E8- | E4 F2 E2 | D4 z4 | x8 | x8 | x8 | x8 | %24
 z4[I:staff +1] C4 | ^B,4 E4 | D8 | C8- | C8 | F,2 G,2 ^A,2 B,2 |[I:staff -1] C8 | z4 E4 | x8 | %33
 F8 | E4 z4 | x8 | x8 | z4 G4 | ^^F4 B4 | ^A8- | A2 D2 G4 | G2 FE F4- | F2 EF G4- | G8- | G8 | x8 | %46
 x8 | x8 | z2[I:staff +1] C2 F2 F2 | F2 FD E4 | F2 F,G, A,2 B,2 | CB,C=D CB,A,C | %52
 B,A,B,C B,A,G,B, | A,G,A,B, A,B,C=D | E=DEF EDCE | =DCDE DCB,D | CB,C=D CB,A,C | B,8 | %58
 A,G,F,E, D,C,^B,,C, | D,4[I:staff -1] z4 | x8 | x8 | x8 | x8 | x8 | x8 | x8 | x8 | x8 | x8 | x8 | %71
 x8 | x4 EDEF | GFGA GFEG | FEFG FEDF | EDEF EDCE | D4 z4 | x8 | x8 | x8 | x8 | %81
 z2[I:staff +1] G,2 C2 C2 | C2 =C^A, ^B,4 |[I:staff -1] C4 z4 |[I:staff +1] B,6[I:staff -1] F2 | %85
 ^E4 F4 |[I:staff +1] B,4 C4- | C4- CCB,A, | G,8 | x8 | x8 | x8 | x8 | x8 | %94
[I:staff -1] z2[I:staff +1] B,2 E2 E2 | E2 =DC B,2[I:staff -1] z2 | z2 C2 F2 F2 | F2 E2 E4 | %98
 F6- FG | A2 GF G2 FE | D4 E4- | E4 D2 C2 | D2 EF G2 G2 | G2 FE D2 C2 | ^B,4 C4- | C4 D4 | %106
 C2 C2 F2 F2 | F2 ED E2 FG | ^A4 D4- | D4 E4 | D6 EF | ^E2 C6 | C2 C2 F2 F2 | F4 ^E2 D2 | x8 |] %115
V:5
 x8 | x8 | x8 | x8 | x8 | x8 | x8 | x8 | x8 | x8 | x8 | z4 G4 | ^E4 A4 | G4 F4- | F4 c4- | c4 B4- | %16
 B4 A4 | G4 A4- | A2 G2 G4 | ^A4 G4- | G4 ^^F4 | G4 B,4 | C6 C2 | D2 C2 D2 ^E2 | F4 A4 | G4 z BAG | %26
 F2 A2 G2 F2 | ^E4 F4- | F2 E6- | E4 D4 | E8- | E2 D2 E2 FG | F4 B4- | B2 c2 B2 A2 | G4 z4 | x8 | %36
 x8 | x8 | x8 | x8 | x8 | x8 | x8 | z4 c4 | ^B4 e4 | d8- | d4 c4- | c4 ^B2 =B2- | BBc=d cBAc | %49
 BABc BAGB | A4- AcBA | G4 z4 | x8 | z4 A4 | G4 c4 | B8- | B2 E2 A2 A2 | A2 GF G4- | G2 CD E2 F2 | %59
 GFGA GFEG | FEFG FEDF | EDEF EDCE | DCDE =DCB,D | CB,C=D CE^DC | ^B,4 C4 | D2 D2 G^A B2- | %66
 B2 ^A2 d2 d2 | d2 c^B c4- | c4 B4 | ^A4 =A4- | A2 D2 G2 G2- | G2 F^E F4- | F4 E4 | D4 C4 | D8 | %75
 x8 | z2 G2 c2 c2 | c2 ^B^A BcdB | GFGA GFEG | FEFG FEDF | EGAB cd^Bc | d2 z2 z4 | x8 | x8 | %84
 z2 F2 B2 B2 | B2 AG A4 | G8- | GGF^E F4 | G4- GGFE | DAGF EGc=B | AGAF G4- | G2 c^B c4- | %92
 c2 ^A2 d2 d2 | d2 cB c4 | B4 B4 | ^A4 =d4 | c8 | G2 G2 c2 c2 | c2 ^B^A Bc d2- | d2 c^B c4 | %100
 F4 G4- | G4 F4- | F2 z2 x4 | z2 C2 F2 F2 | F2 ED E4- | E2 FG =A2 G2- | G2 E2 A2 A2 | %107
 A2 GF G2 ^A^B | c4 ^A4 | G4 G4- | G8- | G4 F4 | ^E4 A4 | G8- | G8 |] %115
V:6
 x8 | x8 | x8 | x8 | x8 | x8 | x8 | x8 | x8 | x8 | x8 | x8 | x8 | x8 | x8 | x8 | x8 | x8 | x8 | %19
 x8 | x8 | x8 | x8 | x8 | x8 | x8 | x8 | x8 | x8 | x8 | x8 | x8 | x8 | x8 | x8 | x8 | x8 | x8 | %38
 x8 | x8 | x8 | x8 | x8 | x8 | x8 | x8 | x8 | x8 | x8 | x8 | x8 | x8 | x8 | x8 | x8 | x8 | x8 | %57
 x8 | x8 | x8 | x8 | x8 | x8 | z2 C,2 F,2 F,2 | G,8 | ^^F,4 G,4 | ^E,2 z2 z4 | x8 | x8 | x8 | x8 | %71
 x8 | x8 | x8 | x8 | x8 | x8 | x8 | x8 | x8 | x8 | x8 | x8 | x8 | x8 | x8 | x8 | x8 | x8 | x8 | %90
 x8 | x8 | x8 | x8 | x8 | x8 | x8 | x8 | x8 | x8 | x8 | x8 | x8 | x8 | x8 | x8 | x8 | x8 | x8 | %109
 x8 | x8 | x8 | x8 | x8 | x8 |] %115

